X:487
T:Reel 487
M:4/4
K:Cmaj
L:1/8
G2EG cGEF|G2FE DEFD|EFED CcBc|dGFE DEFD|GFED C2EG|G2cG edBc|Gfed cBcA|GBcB decA|GcGc ecdc|BGGB FGdB|GccB cedc|BGFD ECC2|Gcce fedc|Bcde f2gf| (3gfe fd cBcB|GccB edcA|
